X: 10193
T: 6. LOCHTY BLEACHERS
C: A. W. Doig
R: reel
B: K\"ohler's Violin Repository, v.1, 1885 p.19 #3
F: http://www.archive.org/details/klersviolinrepos01edin
Z: 2011 John Chambers <jc:trillian.mit.edu>
M: C
L: 1/8
K: D
uA |\
d2(cd) BAGF | EDEF EDB,A, | D2(DF) Adcd | efge dcBA |
d2(cd) BAGF | EDEF EDB,A, | D2(A/B/c/d/) BAGF | EA,CE D3 || A |
d2(fd) gfed | cdef geca | d/d/d (fd) gfed | cdef d2(Ac) |
dfed cedc | Bcde dcBA | d2 (D/E/F/G/) ABcd | efge "_D.C. Fine."d3 |]

%%sep 2 1 500

